svg/color/linon.svg

<svg width="40" height="40" viewBox="0 0 40 40" fill="none" xmlns="http://www.w3.org/2000/svg">
<g clip-path="url(#clip0_819_3703)">
<path d="M20 0C31.0457 0 40 8.9543 40 20C40 31.0457 31.0457 40 20 40C8.95431 40 7.90517e-06 31.0457 0 20C6.58765e-07 8.95431 8.95431 1.97595e-06 20 0Z" fill="#CCDDE9"/>
<path d="M26 6C30.4183 6 34 9.58172 34 14V26C34 30.4183 30.4183 34 26 34H14C9.58172 34 6 30.4183 6 26V14C6 9.58172 9.58172 6 14 6H26Z" fill="#005590"/>
<path d="M28.3999 21.1249C28.5124 20.8036 28.8659 20.1155 29.2948 20.1155C29.3746 20.1155 29.427 20.1538 29.4527 20.2095C29.4803 20.2689 29.4758 20.3511 29.4463 20.4216C29.2966 20.7806 28.8681 21.047 28.3999 21.1249ZM25.7513 20.5273C25.7358 20.8314 25.3069 21.7854 24.7694 21.7854C24.5346 21.7854 24.5236 21.5517 24.5707 21.3458C24.6462 21.0162 25.1023 20.2129 25.5221 20.2129C25.6945 20.2129 25.7593 20.3701 25.7513 20.5273ZM13.0875 21.5843C12.6878 21.8403 12.2857 21.9958 11.8791 21.9958C11.2663 21.9958 10.9221 21.76 10.9221 21.4609C10.9221 21.2491 11.1225 21.0579 11.4803 21.0579C11.9586 21.058 12.5031 21.3067 13.0875 21.5843ZM28.3535 21.3416C28.7029 21.2856 29.8114 21.1091 29.9674 20.5547C30.0959 20.0985 29.6668 19.8754 29.2289 19.8754C28.3562 19.8754 27.4732 20.416 27.2489 21.3049C27.2369 21.3509 27.2289 21.3986 27.2246 21.4468C26.9536 21.6792 26.6894 21.805 26.5422 21.805C26.3808 21.805 26.3601 21.6934 26.4346 21.5491L27.8242 18.8561H26.6929L25.9508 20.2933C25.8959 20.0925 25.6684 19.8582 25.1686 19.8582C24.218 19.8582 23.6628 20.647 23.4671 21.183C23.4332 21.2764 23.4114 21.3672 23.401 21.4542C23.1336 21.6818 22.8734 21.805 22.7277 21.805C22.5666 21.805 22.5457 21.6933 22.6201 21.549L23.023 20.7688C23.2308 20.3663 23.0455 19.924 22.4886 19.924C22.0052 19.924 21.5622 20.1848 21.0203 20.5805L21.3239 19.9923H20.1559L19.8119 20.6593C19.4379 21.3838 18.7757 21.805 18.5064 21.805C18.3452 21.805 18.3217 21.6914 18.399 21.549L19.2434 19.9923H18.0762L17.6061 20.8585C17.4307 21.1817 16.9966 21.6604 16.2872 21.6604C15.8078 21.6604 15.3149 21.5369 14.8052 21.3797C15.6149 20.8884 16.4336 20.2071 17.188 19.3352C18.6862 17.6035 19.6781 16.9465 21.3199 16.9465C23.4398 16.9465 24.2317 17.7481 24.2317 18.4096C24.2317 18.9184 23.9902 19.0809 23.7913 19.1719L23.8208 19.3438C24.761 19.3084 25.2878 18.8455 25.2878 18.31C25.2878 17.3778 23.6859 16.6666 21.1588 16.6666C18.9835 16.6666 17.0967 17.5655 15.8252 18.9141C15.1348 19.6455 14.4562 20.4498 13.7762 21.0528C13.2017 20.879 12.605 20.7358 11.9818 20.7358C10.7707 20.7358 10 21.0414 10 21.5696C10 22.0387 10.8588 22.3294 11.8736 22.3294C12.4481 22.3294 13.0986 22.1879 13.7786 21.9048C14.3142 22.1386 14.8729 22.3294 15.4367 22.3294C16.1774 22.3294 16.7982 21.9511 17.2046 21.6006C17.0099 22.0007 17.2581 22.3294 17.7055 22.3294C18.1274 22.3294 18.7848 22.0823 19.3448 21.5645L18.9854 22.2606H20.1536L20.2569 22.0598C20.4981 21.5902 21.0998 20.5173 21.6909 20.5173C21.8638 20.5173 21.9024 20.6769 21.8181 20.8405L21.4425 21.5677C21.2259 21.987 21.4671 22.3294 21.9268 22.3294C22.3112 22.3294 22.8824 22.1241 23.4012 21.6957C23.4505 22.0705 23.7334 22.3294 24.1313 22.3294C24.5925 22.3294 25.1421 21.9493 25.3316 21.7704C25.3016 22.04 25.4395 22.3294 25.8327 22.3294C26.1537 22.3294 26.7157 22.1193 27.2347 21.6812C27.3002 22.0421 27.6062 22.3734 28.2821 22.3734C28.8384 22.3734 29.5435 22.1329 30 21.8384L29.996 21.629C29.6188 21.8103 29.2766 21.9552 28.8901 21.9552C28.5024 21.9552 28.2802 21.6824 28.3535 21.3416ZM19.736 19.0989C19.7812 18.8038 19.5542 18.565 19.2281 18.565C18.9021 18.565 18.6015 18.8038 18.5559 19.0989C18.5104 19.3942 18.7374 19.633 19.0635 19.633C19.3894 19.633 19.6902 19.3942 19.736 19.0989Z" fill="white"/>
</g>
<defs>
<clipPath id="clip0_819_3703">
<rect width="40" height="40" fill="white"/>
</clipPath>
</defs>
</svg>

<svg xmlns="http://www.w3.org/2000/svg" width="40" height="40" fill="none" viewBox="0 0 40 40"><g clip-path="url(#linon_svg-a)"><path fill="#CCDDE9" d="M20 0c11.046 0 20 8.954 20 20s-8.954 20-20 20S0 31.046 0 20 8.954 0 20 0"/><path fill="#005590" d="M26 6a8 8 0 0 1 8 8v12a8 8 0 0 1-8 8H14a8 8 0 0 1-8-8V14a8 8 0 0 1 8-8z"/><path fill="#fff" d="M28.4 21.125c.112-.321.466-1.01.895-1.01.08 0 .132.039.158.095a.28.28 0 0 1-.007.212c-.15.359-.578.625-1.046.703m-2.649-.598c-.015.304-.444 1.258-.982 1.258-.234 0-.245-.233-.198-.44.075-.329.531-1.132.951-1.132.173 0 .237.157.23.314m-12.663 1.057c-.4.256-.802.412-1.209.412-.613 0-.957-.236-.957-.535 0-.212.2-.403.558-.403.479 0 1.023.249 1.608.526m15.266-.242c.349-.056 1.457-.233 1.613-.787.129-.456-.3-.68-.738-.68-.873 0-1.756.541-1.98 1.43a1 1 0 0 0-.024.142c-.271.232-.536.358-.683.358-.161 0-.182-.112-.107-.256l1.39-2.693h-1.132l-.742 1.437c-.055-.2-.283-.435-.782-.435-.951 0-1.506.789-1.702 1.325a1.2 1.2 0 0 0-.066.271c-.267.228-.528.351-.673.351-.161 0-.182-.112-.108-.256l.403-.78c.208-.403.023-.845-.534-.845-.484 0-.927.26-1.469.657l.304-.589h-1.168l-.344.667c-.374.725-1.036 1.146-1.306 1.146-.16 0-.184-.114-.107-.256l.844-1.557h-1.167l-.47.866c-.175.324-.61.802-1.319.802-.48 0-.972-.123-1.482-.28a10.2 10.2 0 0 0 2.383-2.045c1.498-1.732 2.49-2.389 4.132-2.389 2.12 0 2.912.802 2.912 1.464 0 .508-.242.67-.44.762l.029.172c.94-.036 1.467-.498 1.467-1.034 0-.932-1.602-1.643-4.13-1.643-2.175 0-4.061.898-5.333 2.247-.69.731-1.369 1.536-2.049 2.139-.574-.174-1.171-.317-1.794-.317-1.211 0-1.982.305-1.982.834 0 .469.859.76 1.874.76.574 0 1.225-.142 1.905-.425.535.234 1.094.424 1.658.424.74 0 1.361-.378 1.768-.728-.195.4.053.728.5.728.422 0 1.08-.247 1.64-.765l-.36.697h1.169l.103-.201c.241-.47.843-1.543 1.434-1.543.173 0 .211.16.127.323l-.376.728c-.216.419.025.761.485.761.384 0 .955-.205 1.474-.633.05.374.332.633.73.633.462 0 1.011-.38 1.2-.559-.03.27.108.56.502.56.32 0 .883-.21 1.402-.649.065.361.371.692 1.047.692.556 0 1.262-.24 1.718-.535l-.004-.209c-.377.181-.72.326-1.106.326-.388 0-.61-.273-.537-.613m-8.618-2.243c.045-.295-.182-.534-.508-.534s-.626.239-.672.534.181.534.508.534c.325 0 .626-.239.672-.534"/></g><defs><clipPath id="linon_svg-a"><path fill="#fff" d="M0 0h40v40H0z"/></clipPath></defs></svg>
